static/data/images/sponsors/codemate.svg

<svg fill="none" height="123" viewBox="0 0 167 123" width="167" xmlns="http://www.w3.org/2000/svg"><path d="m164.037 20.0937h-14.715l-6.913-20.0937h-12.443l-5.037 14.5778h-23.109l-4.9958 14.5778h-23.6444l-4.9379 14.5779h-23.4057l-4.8392 14.5778h-27.751l-12.246 35.755 9.87581 28.8597h124.83019l32.294-94.0659z" fill="#141332"/><path d="m140.04 3.34863 6.815 20.09377h14.714l1.877 5.4174h-22.319l-8.79-25.51117z" fill="#fb525d"/><path d="m126.707 17.9263 1.778 5.1219h-14.913l1.679 4.728h12.542l1.778 5.3189h-12.542l1.777 5.1219h15.505l1.778 5.2205h-23.109l-8.691-25.5112z" fill="#fb525d"/><path d="m101.524 44.7187c3.161 1.182 5.728 3.152 6.518 5.6145 1.482 4.2354-1.777 7.6829-8.2954 7.6829h-15.505l-8.6907-25.5112h14.5174c6.123 0 11.6537 3.0534 13.0357 7.2889.692 1.8715 0 3.6444-1.58 4.9249zm-4.3451 8.4709c2.5677 0 3.8511-1.2805 3.3581-2.9549-.5929-1.773-2.7655-2.955-5.3332-2.955h-7.4069l1.9752 5.8114h7.4068zm-12.8385-15.8583 1.8764 5.4175h6.8143c2.0739 0 3.259-1.0835 2.6664-2.6595-.5925-1.576-2.4689-2.6595-4.5428-2.6595h-6.8143" fill="#fb525d"/><path d="m69.8219 47.0825 1.7776 5.122h-14.9124l1.6788 4.6294h12.5423l1.8764 5.319h-12.5422l1.6788 5.0234h15.6038l1.7777 5.122h-23.1094l-8.7895-25.2158z" fill="#fb525d"/><path d="m39.9958 77.6165 11.1596 9.5543h-9.0857l-9.382-8.2739h-4.5429l2.864 8.2739h-7.6044l-8.7895-25.5111h13.3324c7.4068 0 13.9249 3.6444 15.6038 8.4709 1.0863 3.0534-.4938 5.8114-3.5553 7.4859zm-7.8019-3.4475c3.0615 0 4.5429-1.6745 3.8516-3.6444-.6914-1.97-3.2591-3.6445-6.3206-3.6445h-5.6292l2.469 7.2889z" fill="#fb525d"/><g fill="#fff"><path d="m136.878 78.208c5.135 0 7.901 2.561 6.716 6.0084-1.186 3.4474-5.827 6.4024-11.259 6.4024h-3.555l-1.778 5.2204h-5.333l6.024-17.6312zm-3.16 8.8648c2.074 0 3.95-1.2804 4.444-2.6594.494-1.4775-.494-2.6595-2.568-2.6595h-3.753l-1.777 5.3189z"/><path d="m117.424 78.208c5.135 0 7.9 2.561 6.715 6.0084-1.185 3.4475-5.827 6.4024-11.258 6.4024h-3.556l-1.777 5.2204h-5.333l6.024-17.6312zm-3.161 8.8649c2.074 0 3.951-1.2805 4.444-2.6595.494-1.4775-.493-2.6594-2.567-2.6594h-3.753l-1.778 5.3189z"/><path d="m98.1653 78.208 2.6667 17.6312h-5.7282l-.395-3.5459h-9.1845l-2.864 3.5459h-5.6291l14.7149-17.6312zm-10.172 10.6378h6.518l-.9876-6.5994z"/><path d="m32.5899 99.7793c2.1727 0 4.5429.3937 6.1231.9847l-1.3827 4.039c-1.3826-.788-3.4565-1.379-5.4317-1.379-2.4689 0-4.3453.689-4.7403 1.576-.8889 2.462 11.2584 1.182 9.1845 7.19-1.0864 3.251-5.5305 5.713-10.8634 5.713-3.7528 0-5.8268-.689-7.3081-1.28l1.4813-4.137c1.5802.886 3.4566 1.674 6.4193 1.674 1.7777 0 4.3454-.394 4.7404-1.576.8888-2.462-10.9621-1.28-8.987-7.19 1.0864-3.251 5.4317-5.6147 10.7646-5.6147z"/><path d="m58.07 100.075-1.2839 3.743h-6.3205l-4.7404 13.888h-5.333l4.7404-13.888h-6.2217l1.1851-3.743z"/><path d="m91.7456 100.075c6.7156 0 11.0604 3.447 9.1844 8.865-1.8763 5.516-8.4931 8.766-15.3073 8.766h-7.9006l6.0242-17.631zm-4.8391 13.888c3.8516 0 7.5056-1.674 8.6907-5.122 1.1851-3.349-1.2839-5.023-5.1354-5.023h-2.5677l-3.4565 10.145z"/><path d="m80.4867 100.075-3.4565 10.047c-1.9752 5.713-7.0118 7.978-12.9373 7.978s-9.4808-2.265-7.5056-7.978l3.4565-10.047h5.3329l-3.3577 9.85c-1.1851 3.447.8888 4.531 3.3577 4.531 2.469 0 5.333-1.084 6.4193-4.531l3.3578-9.85z"/><path d="m111.1 100.075-6.024 17.631h-5.3327l6.0247-17.631z"/><path d="m125.716 99.7793c6.815 0 10.864 4.1367 9.086 9.1607-1.778 5.122-8.691 9.16-15.406 9.16-6.814 0-10.864-4.137-9.086-9.16 1.778-5.122 8.691-9.1607 15.406-9.1607zm-4.938 14.4797c3.852 0 7.704-2.364 8.691-5.319.988-2.955-1.185-5.319-5.036-5.319-3.852 0-7.704 2.364-8.691 5.319-.988 2.955 1.185 5.319 5.036 5.319z"/></g></svg>

<svg width="167" height="123" viewBox="0 0 167 123" fill="none" xmlns="http://www.w3.org/2000/svg">
<path d="M164.037 20.0937L149.322 20.0937L142.409 0L129.966 0L124.929 14.5778L101.82 14.5778L96.8242 29.1556L73.1798 29.1556L68.2419 43.7335L44.8362 43.7335L39.997 58.3113H12.246L0 94.0663L9.87581 122.926L134.706 122.926L167 28.8601L164.037 20.0937Z" fill="#141332"/>
<path d="M140.04 3.34863L146.855 23.4424L161.569 23.4424L163.446 28.8598L141.127 28.8598L132.337 3.34863L140.04 3.34863Z" fill="#FB525D"/>
<path d="M126.707 17.9263L128.485 23.0482H113.572L115.251 27.7762H127.793L129.571 33.0951H117.029L118.806 38.217H134.311L136.089 43.4375H112.98L104.289 17.9263H126.707Z" fill="#FB525D"/>
<path d="M101.524 44.7187C104.685 45.9007 107.252 47.8707 108.042 50.3332C109.524 54.5686 106.265 58.0161 99.7466 58.0161H84.2416L75.5509 32.5049H90.0683C96.1913 32.5049 101.722 35.5583 103.104 39.7938C103.796 41.6653 103.104 43.4382 101.524 44.7187ZM97.1789 53.1896C99.7466 53.1896 101.03 51.9091 100.537 50.2347C99.9441 48.4617 97.7715 47.2797 95.2038 47.2797H87.7969L89.7721 53.0911H97.1789V53.1896ZM84.3404 37.3313L86.2168 42.7488H93.0311C95.105 42.7488 96.2901 41.6653 95.6975 40.0893C95.105 38.5133 93.2286 37.4298 91.1547 37.4298H84.3404" fill="#FB525D"/>
<path d="M69.8219 47.0825L71.5995 52.2045H56.6871L58.3659 56.8339H70.9082L72.7846 62.1529H60.2424L61.9212 67.1763H77.525L79.3027 72.2983H56.1933L47.4038 47.0825H69.8219Z" fill="#FB525D"/>
<path d="M39.9958 77.6165L51.1554 87.1708H42.0697L32.6877 78.8969H28.1448L31.0088 87.1708H23.4044L14.6149 61.6597H27.9473C35.3541 61.6597 41.8722 65.3041 43.5511 70.1306C44.6374 73.184 43.0573 75.942 39.9958 77.6165ZM32.1939 74.169C35.2554 74.169 36.7368 72.4945 36.0455 70.5246C35.3541 68.5546 32.7864 66.8801 29.7249 66.8801H24.0957L26.5647 74.169H32.1939Z" fill="#FB525D"/>
<path d="M136.878 78.208C142.013 78.208 144.779 80.769 143.594 84.2164C142.408 87.6638 137.767 90.6188 132.335 90.6188H128.78L127.002 95.8392H121.669L127.693 78.208H136.878ZM133.718 87.0728C135.792 87.0728 137.668 85.7924 138.162 84.4134C138.656 82.9359 137.668 81.7539 135.594 81.7539H131.841L130.064 87.0728H133.718Z" fill="white"/>
<path d="M117.424 78.208C122.559 78.208 125.324 80.769 124.139 84.2164C122.954 87.6639 118.312 90.6188 112.881 90.6188H109.325L107.548 95.8392H102.215L108.239 78.208H117.424ZM114.263 87.0729C116.337 87.0729 118.214 85.7924 118.707 84.4134C119.201 82.9359 118.214 81.754 116.14 81.754H112.387L110.609 87.0729H114.263Z" fill="white"/>
<path d="M98.1653 78.208L100.832 95.8392H95.1038L94.7088 92.2933H85.5243L82.6603 95.8392H77.0312L91.7461 78.208H98.1653ZM87.9933 88.8458H94.5113L93.5237 82.2464L87.9933 88.8458Z" fill="white"/>
<path d="M32.5899 99.7793C34.7626 99.7793 37.1328 100.173 38.713 100.764L37.3303 104.803C35.9477 104.015 33.8738 103.424 31.8986 103.424C29.4297 103.424 27.5533 104.113 27.1583 105C26.2694 107.462 38.4167 106.182 36.3428 112.19C35.2564 115.441 30.8123 117.903 25.4794 117.903C21.7266 117.903 19.6526 117.214 18.1713 116.623L19.6526 112.486C21.2328 113.372 23.1092 114.16 26.0719 114.16C27.8496 114.16 30.4173 113.766 30.8123 112.584C31.7011 110.122 19.8502 111.304 21.8253 105.394C22.9117 102.143 27.257 99.7793 32.5899 99.7793Z" fill="white"/>
<path d="M58.07 100.075L56.7861 103.818H50.4656L45.7252 117.706H40.3922L45.1326 103.818H38.9109L40.096 100.075H58.07Z" fill="white"/>
<path d="M91.7456 100.075C98.4612 100.075 102.806 103.522 100.93 108.94C99.0537 114.456 92.4369 117.706 85.6227 117.706H77.7221L83.7463 100.075H91.7456ZM86.9065 113.963C90.7581 113.963 94.4121 112.289 95.5972 108.841C96.7823 105.492 94.3133 103.818 90.4618 103.818H87.8941L84.4376 113.963H86.9065Z" fill="white"/>
<path d="M80.4867 100.075L77.0302 110.122C75.055 115.835 70.0184 118.1 64.0929 118.1C58.1674 118.1 54.6121 115.835 56.5873 110.122L60.0438 100.075H65.3767L62.019 109.925C60.8339 113.372 62.9078 114.456 65.3767 114.456C67.8457 114.456 70.7097 113.372 71.796 109.925L75.1538 100.075H80.4867Z" fill="white"/>
<path d="M111.1 100.075L105.076 117.706H99.7433L105.768 100.075H111.1Z" fill="white"/>
<path d="M125.716 99.7793C132.531 99.7793 136.58 103.916 134.802 108.94C133.024 114.062 126.111 118.1 119.396 118.1C112.582 118.1 108.532 113.963 110.31 108.94C112.088 103.818 119.001 99.7793 125.716 99.7793ZM120.778 114.259C124.63 114.259 128.482 111.895 129.469 108.94C130.457 105.985 128.284 103.621 124.433 103.621C120.581 103.621 116.729 105.985 115.742 108.94C114.754 111.895 116.927 114.259 120.778 114.259Z" fill="white"/>
</svg>
